!!!OTL: RINGLE RINGLE REIHE
!!!ARE: Europa, Mitteleuropa, Deutschland, Darmstadt
!!!SCT: K2063
!!!YEM: Copyright 1995, estate of Helmut Schaffrath.
**kern
*ICvox
*Ivox
*M2/4
*k[b-]
*F:
=1
{8cc
8cc
8dd
8dd
=2
4cc
8a}
{8f
=3
8cc
8cc
16dd
16dd
8dd
=4
4cc
8a}
{8f
=5
8cc
8cc
16dd
16ee
8dd
=6
8cc
8cc
8a}
{8f
=7
8cc
8cc
8dd
8dd
=8
8cc
8cc
8cc
8r}
==
!!!AGN: Kinder - Lied, Reigen, Tanz - Spiel
!!!ONB: ESAC (Essen Associative Code) Database: KINDER
!!!AMT: simple duple
!!!AIN: vox
!!!EED: Helmut Schaffrath
!!!EEV: 1.0
*-
